docs/src/static/components_icon.svg

<svg height="90" viewBox="0 0 90 90" width="90" xmlns="http://www.w3.org/2000/svg"><g fill="#fff" transform="translate(3 3)"><path d="m46.5979148 0v2.17273211 34.85118289h36.7219329v-37.023915zm4.318227 4.35246175h28.0854789v28.31899155h-28.0854789zm-50.2286418 41.93268015v2.1797297 34.8511828h36.7274157v-37.0309125zm64.2712077 0c-10.1161164 0-18.3607929 8.313062-18.3607929 18.5119574 0 10.1988956 8.2446765 18.5189551 18.3607929 18.5189551 10.1157694 0 18.36114-8.3200595 18.36114-18.5189551 0-10.1988954-8.2453706-18.5119574-18.36114-18.5119574zm-59.94770613 4.3594592h28.08013493v28.3119941h-28.08013493zm59.94770613 0c7.7810675 0 14.042913 6.3082706 14.042913 14.1524982 0 7.8442278-6.2618455 14.1594959-14.042913 14.1594959-7.7807204 0-14.0425659-6.3152681-14.0425659-14.1594959 0-7.8442276 6.2618455-14.1524982 14.0425659-14.1524982z"/><path d="m19.1027449 9.55607756-12.22292866 24.26801684h24.54053916zm-.0132839-8.57933901 18.6499284 36.74387785h-37.15650027z"/></g></svg>

<?xml version="1.0" encoding="UTF-8"?>
<svg width="90px" height="90px" viewBox="0 0 90 90" version="1.1" xmlns="http://www.w3.org/2000/svg" xmlns:xlink="http://www.w3.org/1999/xlink">
    <!-- Generator: Sketch 48.2 (47327) - http://www.bohemiancoding.com/sketch -->
    <title>components_icon</title>
    <desc>Created with Sketch.</desc>
    <defs></defs>
    <g id="Page-1" stroke="none" stroke-width="1" fill="none" fill-rule="evenodd">
        <g id="components_icon" fill="#FFFFFF" fill-rule="nonzero">
            <g transform="translate(3.000000, 3.000000)">
                <path d="M46.5979148,0 L46.5979148,2.17273211 L46.5979148,37.023915 L83.3198477,37.023915 L83.3198477,0 L46.5979148,0 Z M50.9161418,4.35246175 L79.0016207,4.35246175 L79.0016207,32.6714533 L50.9161418,32.6714533 L50.9161418,4.35246175 Z M0.6875,46.2851419 L0.6875,48.4648716 L0.6875,83.3160544 L37.4149157,83.3160544 L37.4149157,46.2851419 L0.6875,46.2851419 Z M64.9587077,46.2851419 C54.8425913,46.2851419 46.5979148,54.5982039 46.5979148,64.7970993 C46.5979148,74.9959949 54.8425913,83.3160544 64.9587077,83.3160544 C75.0744771,83.3160544 83.3198477,74.9959949 83.3198477,64.7970993 C83.3198477,54.5982039 75.0744771,46.2851419 64.9587077,46.2851419 Z M5.01100157,50.6446011 L33.0911365,50.6446011 L33.0911365,78.9565952 L5.01100157,78.9565952 L5.01100157,50.6446011 Z M64.9587077,50.6446011 C72.7397752,50.6446011 79.0016207,56.9528717 79.0016207,64.7970993 C79.0016207,72.6413271 72.7397752,78.9565952 64.9587077,78.9565952 C57.1779873,78.9565952 50.9161418,72.6413271 50.9161418,64.7970993 C50.9161418,56.9528717 57.1779873,50.6446011 64.9587077,50.6446011 Z" id="Shape"></path>
                <path d="M19.1027449,9.55607756 L6.87981624,33.8240944 L31.4203554,33.8240944 L19.1027449,9.55607756 Z M19.089461,0.976738553 L37.7393894,37.7206164 L0.582889129,37.7206164 L19.089461,0.976738553 Z" id="Rectangle-7"></path>
            </g>
        </g>
    </g>
</svg>
